X: 7177
T: Ciarán Jennings'
R: reel
M: 4/4
K: Eminor
|:~e3d ABdB|AFDE FEED|~E3D ABd2|fede ~f2ed|
~e3d ABdB|AFDE F~E3|DEFA BFAF|BFAF E4:|
|:b~g3 a~f3|deed efdg|b~g3 ~a3f|deed ~e3g|
b~g3 ~a3f|deed efdB|A~F3 DEFA|BFAF E4:|

